X: 2042
Q: "Reel."
M: C
L: 1/8
K: A
e |\
|: g |\
aefd cdec |
d/c/B/A/ (=GB) =gBB^g |\
[1 aefd cdec | dBgB aAA :|\
[2 af=ge fdec | Bagb aAA |]


